Numix/16/status/indicator-keyboard-Ar-8.svg

<?xml version="1.0" encoding="UTF-8" standalone="no"?>
<svg
   xmlns:dc="http://purl.org/dc/elements/1.1/"
   xmlns:cc="http://creativecommons.org/ns#"
   xmlns:rdf="http://www.w3.org/1999/02/22-rdf-syntax-ns#"
   xmlns:svg="http://www.w3.org/2000/svg"
   xmlns="http://www.w3.org/2000/svg"
   xmlns:sodipodi="http://sodipodi.sourceforge.net/DTD/sodipodi-0.dtd"
   xmlns:inkscape="http://www.inkscape.org/namespaces/inkscape"
   viewBox="0 0 16 16"
   id="svg2"
   version="1.1"
   inkscape:version="0.91 r13725"
   sodipodi:docname="indicator-keyboard-Ar-8.svg">
  <metadata
     id="metadata14">
    <rdf:RDF>
      <cc:Work
         rdf:about="">
        <dc:format>image/svg+xml</dc:format>
        <dc:type
           rdf:resource="http://purl.org/dc/dcmitype/StillImage" />
      </cc:Work>
    </rdf:RDF>
  </metadata>
  <defs
     id="defs12" />
  <sodipodi:namedview
     pagecolor="#ffffff"
     bordercolor="#666666"
     borderopacity="1"
     objecttolerance="10"
     gridtolerance="10"
     guidetolerance="10"
     inkscape:pageopacity="0"
     inkscape:pageshadow="2"
     inkscape:window-width="459"
     inkscape:window-height="369"
     id="namedview10"
     showgrid="false"
     inkscape:zoom="14.75"
     inkscape:cx="8"
     inkscape:cy="8"
     inkscape:window-x="65"
     inkscape:window-y="24"
     inkscape:window-maximized="0"
     inkscape:current-layer="svg2" />
  <path
     style="fill:#ececec;fill-opacity:1"
     d="M 1.5996094 0 C 0.71320937 2.9605947e-16 0 0.71320937 0 1.5996094 L 0 14.400391 C 2.9605947e-16 15.286791 0.71320937 16 1.5996094 16 L 14.400391 16 C 15.286791 16 16 15.286791 16 14.400391 L 16 1.5996094 C 16 0.71320937 15.286791 0 14.400391 0 L 1.5996094 0 z M 4.546875 4.859375 L 5.0859375 4.859375 C 5.3079375 5.321375 5.5187969 5.7821406 5.7167969 6.2441406 C 5.9147969 6.7061406 6.1125469 7.1893594 6.3105469 7.6933594 C 6.5145469 8.1913594 6.7216406 8.7231094 6.9316406 9.2871094 C 7.1416406 9.8451096 7.3692344 10.447703 7.6152344 11.095703 L 6.9414062 11.095703 C 6.8274063 10.789703 6.7191875 10.496844 6.6171875 10.214844 C 6.5151875 9.9328436 6.4163125 9.6567187 6.3203125 9.3867188 L 3.2871094 9.3867188 C 3.1851094 9.6567187 3.0824687 9.9328436 2.9804688 10.214844 C 2.8784687 10.496844 2.7740156 10.789703 2.6660156 11.095703 L 2.0273438 11.095703 C 2.2673437 10.447703 2.4911719 9.8451096 2.7011719 9.2871094 C 2.9111719 8.7231094 3.1164531 8.1913594 3.3144531 7.6933594 C 3.5184531 7.1893594 3.7180156 6.7061406 3.9160156 6.2441406 C 4.1140156 5.7821406 4.324875 5.321375 4.546875 4.859375 z M 4.7988281 5.5605469 C 4.5708281 6.0765469 4.3488125 6.6027187 4.1328125 7.1367188 C 3.9228125 7.6707187 3.7045625 8.2452813 3.4765625 8.8632812 L 6.1308594 8.8632812 C 5.9028594 8.2452813 5.6808437 7.6707187 5.4648438 7.1367188 C 5.2488438 6.6027188 5.0268281 6.0765469 4.7988281 5.5605469 z M 10.060547 6.3535156 C 10.252547 6.3535156 10.431609 6.3684375 10.599609 6.3984375 C 10.773609 6.4284375 10.894937 6.4582812 10.960938 6.4882812 L 10.84375 6.9921875 C 10.79575 6.9681875 10.696875 6.9439219 10.546875 6.9199219 C 10.402875 6.8899219 10.210703 6.875 9.9707031 6.875 C 9.7187031 6.875 9.515375 6.8936875 9.359375 6.9296875 C 9.209375 6.9656875 9.1085469 6.9955312 9.0605469 7.0195312 L 9.0605469 11.095703 L 8.4765625 11.095703 L 8.4765625 6.6582031 C 8.6265625 6.5922031 8.8336562 6.5269375 9.0976562 6.4609375 C 9.3616562 6.3889375 9.6825471 6.3535156 10.060547 6.3535156 z M 12.708984 8.7539062 C 12.911784 8.7539062 13.088128 8.7852563 13.236328 8.8476562 C 13.384528 8.9061562 13.506009 8.9845313 13.599609 9.0820312 C 13.697109 9.1795312 13.765694 9.2912156 13.808594 9.4160156 C 13.855394 9.5408156 13.878906 9.6681812 13.878906 9.8007812 C 13.878906 9.9294812 13.859312 10.049003 13.820312 10.158203 C 13.781312 10.263503 13.732322 10.361472 13.669922 10.451172 C 13.607522 10.536972 13.536984 10.613388 13.458984 10.679688 C 13.380984 10.745988 13.304569 10.800856 13.230469 10.847656 C 13.503469 10.964656 13.693534 11.111609 13.802734 11.287109 C 13.915834 11.462609 13.972656 11.64875 13.972656 11.84375 C 13.972656 12.01145 13.941306 12.164288 13.878906 12.304688 C 13.820406 12.445088 13.738106 12.566569 13.628906 12.667969 C 13.519706 12.765469 13.386469 12.841884 13.230469 12.896484 C 13.074469 12.954984 12.900084 12.984375 12.708984 12.984375 C 12.517884 12.984375 12.345453 12.956944 12.189453 12.902344 C 12.037353 12.847744 11.904116 12.771328 11.791016 12.673828 C 11.681816 12.572428 11.595603 12.454866 11.533203 12.322266 C 11.474703 12.185766 11.445313 12.038806 11.445312 11.878906 C 11.445312 11.742406 11.464906 11.618966 11.503906 11.509766 C 11.542906 11.396666 11.59385 11.296737 11.65625 11.210938 C 11.72255 11.121237 11.797006 11.042863 11.878906 10.976562 C 11.964706 10.906363 12.054837 10.845622 12.148438 10.794922 C 11.910538 10.677922 11.747909 10.540759 11.662109 10.380859 C 11.576309 10.220959 11.533203 10.046575 11.533203 9.859375 C 11.533203 9.691675 11.562594 9.5407968 11.621094 9.4042969 C 11.679594 9.2677969 11.759928 9.1521937 11.861328 9.0585938 C 11.966628 8.9610938 12.092028 8.8866375 12.236328 8.8359375 C 12.380628 8.7813375 12.537384 8.7539062 12.708984 8.7539062 z M 12.708984 9.0820312 C 12.580284 9.0820312 12.468594 9.101625 12.371094 9.140625 C 12.273594 9.179625 12.1913 9.2344875 12.125 9.3046875 C 12.0626 9.3709875 12.013616 9.4493625 11.978516 9.5390625 C 11.947316 9.6287624 11.931641 9.7208594 11.931641 9.8183594 C 11.931641 9.9275594 11.943397 10.027487 11.966797 10.117188 C 11.994097 10.206888 12.043081 10.289181 12.113281 10.363281 C 12.183481 10.433481 12.28145 10.5001 12.40625 10.5625 C 12.53105 10.621 12.693684 10.677822 12.896484 10.732422 C 13.075884 10.631022 13.218919 10.505622 13.324219 10.357422 C 13.429519 10.209222 13.482422 10.023081 13.482422 9.8007812 C 13.482422 9.7110812 13.466747 9.6248624 13.435547 9.5390625 C 13.408247 9.4532625 13.363181 9.3768469 13.300781 9.3105469 C 13.242281 9.2403469 13.163906 9.1854844 13.066406 9.1464844 C 12.968906 9.1035844 12.849384 9.0820312 12.708984 9.0820312 z M 12.474609 10.929688 C 12.275709 11.023287 12.122872 11.150647 12.013672 11.310547 C 11.904472 11.466547 11.849609 11.656606 11.849609 11.878906 C 11.849609 11.988106 11.867244 12.088041 11.902344 12.181641 C 11.937444 12.275241 11.990347 12.357534 12.060547 12.427734 C 12.134647 12.497934 12.224778 12.554756 12.330078 12.597656 C 12.439278 12.636656 12.564684 12.65625 12.708984 12.65625 C 12.853284 12.65625 12.978684 12.636656 13.083984 12.597656 C 13.193184 12.554756 13.283316 12.497934 13.353516 12.427734 C 13.427616 12.357534 13.482478 12.275241 13.517578 12.181641 C 13.552678 12.088041 13.570312 11.988106 13.570312 11.878906 C 13.570312 11.711206 13.537003 11.57405 13.470703 11.46875 C 13.408303 11.36345 13.32405 11.277238 13.21875 11.210938 C 13.11735 11.144638 12.999787 11.091734 12.867188 11.052734 C 12.738488 11.013734 12.607209 10.972587 12.474609 10.929688 z "
     id="path4" />
</svg>

<svg xmlns="http://www.w3.org/2000/svg" viewBox="0 0 16 16">
 <path d="m 1.6 0 c -0.886 0 -1.6 0.713 -1.6 1.6 l 0 12.801 c 0 0.886 0.713 1.6 1.6 1.6 l 12.801 0 c 0.886 0 1.6 -0.713 1.6 -1.6 l 0 -12.801 c 0 -0.886 -0.713 -1.6 -1.6 -1.6 l -12.801 0 z m 2.947 4.859 l 0.539 0 c 0.222 0.462 0.433 0.923 0.631 1.385 c 0.198 0.462 0.396 0.945 0.594 1.449 c 0.204 0.498 0.411 1.03 0.621 1.594 c 0.21 0.558 0.438 1.161 0.684 1.809 l -0.674 0 c -0.114 -0.306 -0.222 -0.599 -0.324 -0.881 c -0.102 -0.282 -0.201 -0.558 -0.297 -0.828 l -3.033 0 c -0.102 0.27 -0.205 0.546 -0.307 0.828 c -0.102 0.282 -0.206 0.575 -0.314 0.881 l -0.639 0 c 0.24 -0.648 0.464 -1.251 0.674 -1.809 c 0.21 -0.564 0.415 -1.096 0.613 -1.594 c 0.204 -0.504 0.404 -0.987 0.602 -1.449 c 0.198 -0.462 0.409 -0.923 0.631 -1.385 z m 0.252 0.701 c -0.228 0.516 -0.45 1.042 -0.666 1.576 c -0.21 0.534 -0.428 1.109 -0.656 1.727 l 2.654 0 c -0.228 -0.618 -0.45 -1.193 -0.666 -1.727 c -0.216 -0.534 -0.438 -1.06 -0.666 -1.576 z m 5.262 0.793 c 0.192 0 0.371 0.015 0.539 0.045 c 0.174 0.03 0.295 0.06 0.361 0.09 l -0.117 0.504 c -0.048 -0.024 -0.147 -0.048 -0.297 -0.072 c -0.144 -0.03 -0.336 -0.045 -0.576 -0.045 c -0.252 0 -0.455 0.019 -0.611 0.055 c -0.15 0.036 -0.251 0.066 -0.299 0.09 l 0 4.076 l -0.584 0 l 0 -4.437 c 0.15 -0.066 0.357 -0.131 0.621 -0.197 c 0.264 -0.072 0.585 -0.107 0.963 -0.107 z m 2.648 2.4 c 0.203 0 0.379 0.031 0.527 0.094 c 0.148 0.059 0.27 0.137 0.363 0.234 c 0.098 0.098 0.166 0.209 0.209 0.334 c 0.047 0.125 0.07 0.252 0.07 0.385 c 0 0.129 -0.02 0.248 -0.059 0.357 c -0.039 0.105 -0.088 0.203 -0.15 0.293 c -0.062 0.086 -0.133 0.162 -0.211 0.229 c -0.078 0.066 -0.154 0.121 -0.229 0.168 c 0.273 0.117 0.463 0.264 0.572 0.439 c 0.113 0.176 0.17 0.362 0.17 0.557 c 0 0.168 -0.031 0.321 -0.094 0.461 c -0.059 0.14 -0.141 0.262 -0.25 0.363 c -0.109 0.098 -0.242 0.174 -0.398 0.229 c -0.156 0.059 -0.33 0.088 -0.521 0.088 c -0.191 0 -0.364 -0.027 -0.52 -0.082 c -0.152 -0.055 -0.285 -0.131 -0.398 -0.229 c -0.109 -0.101 -0.195 -0.219 -0.258 -0.352 c -0.059 -0.137 -0.088 -0.283 -0.088 -0.443 c 0 -0.136 0.02 -0.26 0.059 -0.369 c 0.039 -0.113 0.09 -0.213 0.152 -0.299 c 0.066 -0.09 0.141 -0.168 0.223 -0.234 c 0.086 -0.07 0.176 -0.131 0.27 -0.182 c -0.238 -0.117 -0.401 -0.254 -0.486 -0.414 c -0.086 -0.16 -0.129 -0.334 -0.129 -0.521 c 0 -0.168 0.029 -0.319 0.088 -0.455 c 0.059 -0.136 0.139 -0.252 0.24 -0.346 c 0.105 -0.098 0.231 -0.172 0.375 -0.223 c 0.144 -0.055 0.301 -0.082 0.473 -0.082 z m 0 0.328 c -0.129 0 -0.24 0.02 -0.338 0.059 c -0.098 0.039 -0.18 0.094 -0.246 0.164 c -0.062 0.066 -0.111 0.145 -0.146 0.234 c -0.031 0.09 -0.047 0.182 -0.047 0.279 c 0 0.109 0.012 0.209 0.035 0.299 c 0.027 0.09 0.076 0.172 0.146 0.246 c 0.07 0.07 0.168 0.137 0.293 0.199 c 0.125 0.059 0.287 0.115 0.49 0.17 c 0.179 -0.101 0.322 -0.227 0.428 -0.375 c 0.105 -0.148 0.158 -0.334 0.158 -0.557 c 0 -0.09 -0.016 -0.176 -0.047 -0.262 c -0.027 -0.086 -0.072 -0.162 -0.135 -0.229 c -0.059 -0.07 -0.137 -0.125 -0.234 -0.164 c -0.098 -0.043 -0.217 -0.064 -0.357 -0.064 z m -0.234 1.848 c -0.199 0.094 -0.352 0.221 -0.461 0.381 c -0.109 0.156 -0.164 0.346 -0.164 0.568 c 0 0.109 0.018 0.209 0.053 0.303 c 0.035 0.094 0.088 0.176 0.158 0.246 c 0.074 0.07 0.164 0.127 0.27 0.17 c 0.109 0.039 0.235 0.059 0.379 0.059 c 0.144 0 0.27 -0.02 0.375 -0.059 c 0.109 -0.043 0.199 -0.1 0.27 -0.17 c 0.074 -0.07 0.129 -0.152 0.164 -0.246 c 0.035 -0.094 0.053 -0.194 0.053 -0.303 c 0 -0.168 -0.033 -0.305 -0.1 -0.41 c -0.062 -0.105 -0.147 -0.192 -0.252 -0.258 c -0.101 -0.066 -0.219 -0.119 -0.352 -0.158 c -0.129 -0.039 -0.26 -0.08 -0.393 -0.123 z" style="fill:#ececec;fill-opacity:1"/>
</svg>
